rospo-dark/24x24/actions/paint-unknown.svg

<svg height="24" viewBox="0 0 24 24" width="24" xmlns="http://www.w3.org/2000/svg"><path d="m12.28125 3c-2.016609.0000166-3.3051192.5488567-4.53125 1.3652344-.7421068.4867182-1.2988725 1.08453-1.6699219 1.7910156-.3872032.6908105-.5800781 1.9310606-.5800781 2.8730469h4.984375l-.023437-.7773438c.024146-1.5778384.884591-1.7656083 1.384765-1.765625.451644.0000167.837474.1238076 1.160156.375.338754.2512092.509766.5820497.509766.9902344 0 .5809102-.473528.8603745-1.066406 1.3652344-.951027.8099611-1.765422 1.4327021-1.958985 1.6210941-.7098053.675102-1.6241845 1.270721-1.3476559 3.423828h5.0410159c0-.879195.001508-1.405876.759765-1.892578l2.298829-1.857422c.838848-.706494 1.257812-1.6718723 1.257812-2.8964846 0-1.4600797-.685318-2.6208555-2.056641-3.484375-1.209901-.7535774-2.597304-1.1308428-4.162109-1.1308594zm-3.0703125 13.09375v4.90625h4.9375005v-4.90625z" fill="#d3dae3"/></svg>

<svg xmlns="http://www.w3.org/2000/svg" width="24" height="24" viewBox="0 0 24 24">
 <defs>
  <style id="current-color-scheme" type="text/css">
   .ColorScheme-Text { color:#d3dae3; } .ColorScheme-Highlight { color:#5294e2; }
  </style>
 </defs>
 <path style="fill:currentColor" class="ColorScheme-Text" d="M 12.28125 3 C 10.264641 3.0000166 8.9761308 3.5488567 7.75 4.3652344 C 7.0078932 4.8519526 6.4511275 5.4497644 6.0800781 6.15625 C 5.6928749 6.8470605 5.5 8.0873106 5.5 9.0292969 L 10.484375 9.0292969 L 10.460938 8.2519531 C 10.485084 6.6741147 11.345529 6.4863448 11.845703 6.4863281 C 12.297347 6.4863448 12.683177 6.6101357 13.005859 6.8613281 C 13.344613 7.1125373 13.515625 7.4433778 13.515625 7.8515625 C 13.515625 8.4324727 13.042097 8.711937 12.449219 9.2167969 C 11.498192 10.026758 10.683797 10.649499 10.490234 10.837891 C 9.7804287 11.512993 8.8660495 12.108612 9.1425781 14.261719 L 14.183594 14.261719 C 14.183594 13.382524 14.185102 12.855843 14.943359 12.369141 L 17.242188 10.511719 C 18.081036 9.805225 18.5 8.8398467 18.5 7.6152344 C 18.5 6.1551547 17.814682 4.9943789 16.443359 4.1308594 C 15.233458 3.377282 13.846055 3.0000166 12.28125 3 z M 9.2109375 16.09375 L 9.2109375 21 L 14.148438 21 L 14.148438 16.09375 L 9.2109375 16.09375 z"/>
</svg>
